;FLAVOR:Marlin
;TIME:1200
;Filament used: 0.470113m
;Layer height: 0.2
;MINX:102.891
;MINY:100.201
;MINZ:0.2
;MAXX:117.079
;MAXY:119.764
;MAXZ:15
;Generated with Cura_SteamEngine 5.0.0
M140 S60
M105
M190 S60
M104 S205
M105
M109 S205
M82 ;absolute extrusion mode
; Ender 3 Custom Start G-code
G92 E0 ; Reset Extruder
G28 ; Home all axes
G1 Z2.0 F3000 ; Move Z Axis up little to prevent scratching of Heat Bed
G1 X0.1 Y20 Z0.3 F5000.0 ; Move to start position
G1 X0.1 Y200.0 Z0.3 F1500.0 E15 ; Draw the first line
G1 X0.4 Y200.0 Z0.3 F5000.0 ; Move to side a little
G1 X0.4 Y20 Z0.3 F1500.0 E30 ; Draw the second line
G92 E0 ; Reset Extruder
G1 Z2.0 F3000 ; Move Z Axis up little to prevent scratching of Heat Bed
G1 X5 Y20 Z0.3 F5000.0 ; Move over to prevent blob squish
G92 E0
G92 E0
G1 F1500 E-6.5
;LAYER_COUNT:75
;LAYER:0
M107
G0 F6000 X106.631 Y101.395 Z0.2
;TYPE:SKIRT
G1 F1500 E0
G1 F1200 X106.842 Y101.189 E0.00981
G1 X107.138 Y101.077 E0.02033
G1 X107.566 Y101.093 E0.03458
G1 X107.829 Y101.232 E0.04447
G1 X107.971 Y101.384 E0.05139
G1 X107.43 Y101.317 E0.06952
G1 X106.871 Y101.344 E0.08814
G1 X106.631 Y101.395 E0.0963
G1 F1500 E-6.4037
G0 F6000 X105.166 Y102.565
G0 X103.756 Y104.524
G1 F1500 E0.0963
G1 F1200 X103.841 Y104.219 E0.10683
G1 X104.082 Y103.948 E0.11889
G1 X104.018 Y104.328 E0.13171
G1 X104.006 Y104.626 E0.14163
G1 X104.021 Y104.925 E0.15158
G1 X104.083 Y105.289 E0.16387
G1 X103.905 Y105.12 E0.17203
G1 X103.792 Y104.896 E0.18037
G1 X103.756 Y104.524 E0.1928
G1 F1500 E-6.3072
G0 F6000 X104.85 Y106.279
G0 X105.134 Y106.63
G0 X106.636 Y107.841
G1 F1500 E0.1928
G1 F1200 X106.906 Y107.896 E0.20197
G1 X107.464 Y107.915 E0.22054
G1 X107.967 Y107.851 E0.2374
G1 X107.811 Y108.013 E0.24488
G1 X107.573 Y108.133 E0.25375
G1 X107.235 Y108.165 E0.26504
G1 X106.926 Y108.091 E0.27561
G1 X106.73 Y107.955 E0.28354
G1 X106.636 Y107.841 E0.28846
G1 F1500 E-6.21154
G0 F6000 X109.17 Y109.67
G1 F1500 E0.28846
G1 F1200 X109.226 Y109.463 E0.29559
G1 X109.362 Y109.312 E0.30235
G1 X109.727 Y109.1 E0.31639
G1 X109.806 Y109.015 E0.32025
G1 X110.049 Y108.522 E0.33853
G1 X110.28 Y108.166 E0.35264
G1 X110.474 Y107.929 E0.36283
G1 X110.918 Y107.543 E0.3824
G1 X111.18 Y107.373 E0.39279
G1 X111.746 Y107.08 E0.41398
G1 X111.83 Y106.997 E0.41791
G1 X112.009 Y106.664 E0.43049
G1 X112.238 Y106.491 E0.44003
G1 X112.337 Y106.469 E0.44341
G1 X113.007 Y106.467 E0.46569
G1 X113.234 Y106.535 E0.47357
G1 X113.329 Y106.606 E0.47752
G1 X113.725 Y107.11 E0.49883
G1 X114.209 Y107.371 E0.51712
G1 X114.475 Y107.547 E0.52773
G1 X114.833 Y107.831 E0.54293
G1 X115.023 Y108.063 E0.55291
G1 X115.092 Y108.365 E0.56321
G1 X114.897 Y108.108 E0.57394
G1 X114.649 Y107.85 E0.58584
G1 X114.366 Y107.622 E0.59793
G1 X114.062 Y107.435 E0.6098
G1 X113.738 Y107.286 E0.62166
G1 X113.389 Y107.174 E0.63385
G1 X113.037 Y107.112 E0.64574
G1 X112.695 Y107.091 E0.65714
G1 X112.437 Y107.102 E0.66572
G1 X112.087 Y107.154 E0.67749
G1 X111.745 Y107.251 E0.68932
G1 X111.41 Y107.39 E0.70138
G1 X111.099 Y107.569 E0.71331
G1 X110.813 Y107.783 E0.7252
G1 X110.556 Y108.031 E0.73707
G1 X110.328 Y108.313 E0.74914
G1 X110.14 Y108.618 E0.76105
G1 X109.989 Y108.944 E0.773
G1 X109.881 Y109.289 E0.78503
G1 X109.817 Y109.641 E0.79693
G1 X109.795 Y109.999 E0.80885
G1 X109.818 Y110.355 E0.82072
G1 X109.886 Y110.707 E0.83264
G1 X109.996 Y111.048 E0.84456
G1 X110.149 Y111.376 E0.8566
G1 X110.341 Y111.68 E0.86856
G1 X110.446 Y111.81 E0.87412
G1 X110.5 Y112.026 E0.88152
G1 X110.773 Y112.316 E0.89477
G1 X110.907 Y112.379 E0.89969
G1 X111.116 Y112.418 E0.90676
G1 X111.426 Y112.594 E0.91862
G1 X111.762 Y112.732 E0.9307
G1 X112.11 Y112.826 E0.94269
G1 X112.46 Y112.876 E0.95445
G1 X112.821 Y112.883 E0.96646
G1 X113.181 Y112.844 E0.9785
G1 X113.529 Y112.763 E0.99039
G1 X113.868 Y112.637 E1.00242
G1 X114.187 Y112.47 E1.01439
G1 X114.481 Y112.267 E1.02628
G1 X114.751 Y112.028 E1.03827
G1 X114.985 Y111.76 E1.0501
G1 X115.186 Y111.464 E1.062
G1 X115.348 Y111.145 E1.0739
G1 X115.473 Y110.805 E1.08595
G1 X115.553 Y110.453 E1.09796
G1 X115.588 Y110.097 E1.10985
G1 X115.579 Y109.74 E1.12173
G1 X115.527 Y109.383 E1.13373
G1 X115.43 Y109.036 E1.14571
G1 X115.29 Y108.705 E1.15767
G1 X115.212 Y108.567 E1.16294
G1 X116.092 Y109.374 E1.20265
G1 X116.199 Y109.566 E1.20996
G1 X116.215 Y109.678 E1.21373
G1 X116.214 Y110.335 E1.23558
G1 X116.151 Y110.527 E1.2423
G1 X116.084 Y110.619 E1.24608
G1 X115.579 Y111.012 E1.26737
G1 X115.316 Y111.485 E1.28537
G1 X115.127 Y111.773 E1.29683
G1 X114.908 Y112.052 E1.30862
G1 X114.473 Y112.431 E1.32781
G1 X114.191 Y112.615 E1.33901
G1 X113.698 Y112.871 E1.35749
G1 X113.423 Y113.258 E1.37328
G1 X113.215 Y113.458 E1.38288
G1 X112.976 Y113.51 E1.39101
G1 X112.369 Y113.509 E1.4112
G1 X112.15 Y113.441 E1.41883
G1 X112.064 Y113.374 E1.42245
G1 X111.647 Y112.86 E1.44447
G1 X111.175 Y112.6 E1.46239
G1 X110.913 Y112.433 E1.47272
G1 X110.677 Y112.242 E1.48282
G1 X110.439 Y112 E1.49411
G1 X110.248 Y111.766 E1.50416
G1 X110.084 Y111.507 E1.51435
G1 X109.826 Y111 E1.53327
G1 X109.35 Y110.659 E1.55275
G1 X109.217 Y110.483 E1.56009
G1 X109.176 Y110.365 E1.56424
G1 X109.17 Y109.67 E1.58736
G1 F1500 E-4.91264
G0 F6000 X105.039 Y113.576
G1 F1500 E1.58736
G1 F1200 X104.84 Y113.87 E1.59917
G1 X104.674 Y114.192 E1.61121
G1 X104.552 Y114.53 E1.62317
G1 X104.471 Y114.882 E1.63518
G1 X104.436 Y115.239 E1.64711
G1 X104.445 Y115.599 E1.65909
G1 X104.498 Y115.951 E1.67093
G1 X104.593 Y116.298 E1.68289
G1 X104.734 Y116.632 E1.69495
G1 X104.914 Y116.943 E1.7069
G1 X105.127 Y117.228 E1.71874
G1 X105.375 Y117.485 E1.73062
G1 X105.657 Y117.713 E1.74268
G1 X105.962 Y117.901 E1.75459
G1 X106.289 Y118.052 E1.76657
G1 X106.634 Y118.16 E1.7786
G1 X106.985 Y118.224 E1.79046
G1 X107.333 Y118.245 E1.80206
G1 X107.587 Y118.232 E1.81052
G1 X107.934 Y118.182 E1.82218
G1 X108.28 Y118.085 E1.83413
G1 X108.614 Y117.946 E1.84616
G1 X108.926 Y117.766 E1.85814
G1 X109.211 Y117.553 E1.86998
G1 X109.467 Y117.306 E1.88181
G1 X109.696 Y117.023 E1.89392
G1 X109.884 Y116.718 E1.90583
G1 X110.033 Y116.393 E1.91773
G1 X110.144 Y116.047 E1.92981
G1 X110.208 Y115.695 E1.94171
G1 X110.23 Y115.335 E1.95371
G1 X110.205 Y114.98 E1.96554
G1 X110.138 Y114.63 E1.9774
G1 X110.028 Y114.287 E1.98938
G1 X109.876 Y113.961 E2.00134
G1 X109.684 Y113.656 E2.01333
G1 X109.456 Y113.378 E2.02529
G1 X109.198 Y113.132 E2.03714
G1 X108.908 Y112.916 E2.04917
G1 X108.597 Y112.741 E2.06104
G1 X108.264 Y112.604 E2.07301
G1 X107.915 Y112.51 E2.08504
G1 X107.561 Y112.459 E2.09693
G1 X107.228 Y112.452 E2.10801
G1 X106.842 Y112.491 E2.12091
G1 X106.496 Y112.574 E2.13275
G1 X106.158 Y112.698 E2.14472
G1 X105.835 Y112.867 E2.15685
G1 X105.543 Y113.07 E2.16868
G1 X105.274 Y113.308 E2.18062
G1 X105.039 Y113.576 E2.19248
G0 F6000 X103.791 Y115.19
G1 F1200 X103.863 Y114.961 E2.20046
G1 X103.993 Y114.774 E2.20804
G1 X104.424 Y114.417 E2.22665
G1 X104.472 Y114.357 E2.22921
G1 X104.792 Y113.759 E2.25176
G1 X105.076 Y113.373 E2.2677
G1 X105.389 Y113.06 E2.28243
G1 X105.728 Y112.808 E2.29647
G1 X106.337 Y112.484 E2.31942
G1 X106.396 Y112.436 E2.32195
G1 X106.75 Y112.017 E2.34019
G1 X106.936 Y111.878 E2.34792
G1 X107.18 Y111.804 E2.3564
G1 X107.636 Y111.84 E2.37161
G1 X107.905 Y112.016 E2.3823
G1 X108.262 Y112.441 E2.40076
G1 X108.322 Y112.489 E2.40332
G1 X108.937 Y112.812 E2.42642
G1 X109.292 Y113.076 E2.44114
G1 X109.593 Y113.381 E2.45539
G1 X109.865 Y113.746 E2.47053
G1 X110.19 Y114.353 E2.49343
G1 X110.238 Y114.413 E2.49599
G1 X110.666 Y114.77 E2.51452
G1 X110.827 Y115.03 E2.52469
G1 X110.877 Y115.369 E2.53609
G1 X110.855 Y115.599 E2.54378
G1 X110.737 Y115.836 E2.55258
G1 X110.659 Y115.927 E2.55657
G1 X110.234 Y116.294 E2.57524
G1 X110.189 Y116.351 E2.57766
G1 X109.873 Y116.943 E2.59998
G1 X109.607 Y117.304 E2.61489
G1 X109.286 Y117.623 E2.62995
G1 X108.916 Y117.897 E2.64526
G1 X108.337 Y118.206 E2.66709
G1 X108.279 Y118.252 E2.66955
G1 X107.904 Y118.687 E2.68865
G1 X107.611 Y118.865 E2.70005
G1 X107.283 Y118.899 E2.71102
G1 X106.951 Y118.82 E2.72237
G1 X106.741 Y118.666 E2.73103
G1 X106.38 Y118.246 E2.74945
G1 X106.323 Y118.2 E2.75189
G1 X105.731 Y117.879 E2.77429
G1 X105.367 Y117.612 E2.7893
G1 X105.06 Y117.304 E2.80377
G1 X104.782 Y116.928 E2.81932
G1 X104.469 Y116.354 E2.84107
G1 X104.424 Y116.299 E2.84343
G1 X104.001 Y115.931 E2.86208
G1 X103.874 Y115.762 E2.86911
G1 X103.791 Y115.518 E2.87768
G1 X103.791 Y115.19 E2.88859
G1 F1500 E-3.61141
G0 F6000 X110.535 Y105.282
G1 F1500 E2.88859
G1 F1200 X110.564 Y105.158 E2.89283
G1 X110.609 Y104.6 E2.91144
G1 X110.559 Y104.044 E2.93001
G1 X110.534 Y103.947 E2.93334
G1 X110.768 Y104.209 E2.94503
G1 X110.848 Y104.456 E2.95366
G1 X110.85 Y104.769 E2.96407
G1 X110.774 Y105.011 E2.97251
G1 X110.634 Y105.199 E2.98031
G1 X110.535 Y105.282 E2.9846
G1 F1500 E-3.5154
;MESH:BUTTON_FIX3.STL
G0 F6000 X109.149 Y104.936
G0 X106.969 Y106.165
G1 F1500 E2.9846
G0 F6000 X106.863 Y106.66
;TYPE:WALL-OUTER
G1 F1200 X107.222 Y106.707 E2.99665
G1 X107.567 Y106.693 E3.00813
G1 X107.923 Y106.615 E3.02025
G1 X108.246 Y106.486 E3.03182
G1 X108.548 Y106.301 E3.0436
G1 X108.819 Y106.062 E3.05562
G1 X109.039 Y105.788 E3.0673
G1 X109.21 Y105.483 E3.07893
G1 X109.332 Y105.14 E3.09104
G1 X109.39 Y104.798 E3.10258
G1 X109.39 Y104.791 E3.10281
G1 X109.391 Y104.44 E3.11449
G1 X109.332 Y104.096 E3.1261
G1 X109.211 Y103.755 E3.13813
G1 X109.04 Y103.449 E3.14979
G1 X108.819 Y103.175 E3.1615
G1 X108.548 Y102.935 E3.17354
G1 X108.25 Y102.751 E3.18519
G1 X107.925 Y102.621 E3.19683
G1 X107.574 Y102.544 E3.20878
G1 X107.218 Y102.527 E3.22063
G1 X106.871 Y102.572 E3.23227
G1 X106.529 Y102.676 E3.24416
G1 X106.212 Y102.835 E3.25596
G1 X105.923 Y103.049 E3.26792
G1 X105.689 Y103.295 E3.27921
G1 X105.484 Y103.596 E3.29132
G1 X105.335 Y103.921 E3.30321
G1 X105.248 Y104.259 E3.31482
G1 X105.215 Y104.617 E3.32678
G1 X105.245 Y104.965 E3.3384
G1 X105.334 Y105.312 E3.35031
G1 X105.482 Y105.635 E3.36213
G1 X105.675 Y105.923 E3.37366
G1 X105.923 Y106.185 E3.38566
G1 X106.212 Y106.4 E3.39764
G1 X106.523 Y106.556 E3.40921
G1 X106.863 Y106.66 E3.42104
G0 F6000 X106.947 Y106.269
;TYPE:WALL-INNER
G1 F1200 X107.238 Y106.307 E3.4308
G1 X107.517 Y106.296 E3.44008
G1 X107.805 Y106.233 E3.44989
G1 X108.066 Y106.128 E3.45925
G1 X108.31 Y105.979 E3.46876
G1 X108.529 Y105.786 E3.47846
G1 X108.707 Y105.564 E3.48793
G1 X108.845 Y105.318 E3.49731
G1 X108.944 Y105.04 E3.50713
G1 X108.992 Y104.764 E3.51644
G1 X108.992 Y104.757 E3.51668
G1 X108.992 Y104.474 E3.52609
G1 X108.945 Y104.196 E3.53547
G1 X108.846 Y103.921 E3.54519
G1 X108.708 Y103.674 E3.5546
G1 X108.529 Y103.453 E3.56406
G1 X108.311 Y103.257 E3.57381
G1 X108.07 Y103.108 E3.58323
G1 X107.807 Y103.003 E3.59265
G1 X107.522 Y102.941 E3.60235
G1 X107.236 Y102.927 E3.61187
G1 X106.955 Y102.964 E3.6213
G1 X106.677 Y103.048 E3.63096
G1 X106.422 Y103.176 E3.64045
G1 X106.189 Y103.348 E3.65008
G1 X106 Y103.547 E3.65921
G1 X105.832 Y103.792 E3.66909
G1 X105.712 Y104.055 E3.67871
G1 X105.642 Y104.327 E3.68805
G1 X105.615 Y104.617 E3.69774
G1 X105.639 Y104.897 E3.70708
G1 X105.712 Y105.179 E3.71677
G1 X105.831 Y105.439 E3.72628
G1 X105.987 Y105.672 E3.73561
G1 X106.189 Y105.886 E3.7454
G1 X106.422 Y106.059 E3.75505
G1 X106.672 Y106.184 E3.76434
G1 X106.947 Y106.269 E3.77392
G0 F6000 X107.032 Y105.878
G1 F1200 X107.361 Y105.912 E3.78492
G1 X107.687 Y105.851 E3.79595
G1 X107.985 Y105.721 E3.80676
G1 X108.239 Y105.51 E3.81775
G1 X108.436 Y105.251 E3.82857
G1 X108.557 Y104.94 E3.83967
G1 X108.593 Y104.723 E3.84698
G1 X108.584 Y104.401 E3.8577
G1 X108.481 Y104.088 E3.86866
G1 X108.314 Y103.809 E3.87947
G1 X108.073 Y103.579 E3.89055
G1 X107.792 Y103.417 E3.90134
G1 X107.471 Y103.338 E3.91234
G1 X107.145 Y103.333 E3.92318
G1 X106.826 Y103.419 E3.93417
G1 X106.537 Y103.574 E3.94508
G1 X106.312 Y103.798 E3.95564
G1 X106.126 Y104.086 E3.96704
G1 X106.036 Y104.395 E3.97774
G1 X106.015 Y104.724 E3.98871
G1 X106.089 Y105.045 E3.99966
G1 X106.233 Y105.34 E4.01058
G1 X106.455 Y105.587 E4.02163
G1 X106.722 Y105.774 E4.03247
G1 X107.032 Y105.878 E4.04335
G0 F6000 X107.501 Y105.524
;TYPE:SKIN
G1 F1200 X107.795 Y105.411 E4.05382
G1 X108.04 Y105.176 E4.06511
G1 X108.163 Y104.955 E4.07353
G1 X108.219 Y104.747 E4.08069
G1 X108.218 Y104.485 E4.0894
G1 X108.118 Y104.165 E4.10055
G1 X107.902 Y103.914 E4.11157
G1 X107.665 Y103.77 E4.12079
G1 X107.346 Y103.686 E4.13176
G1 X107.015 Y103.741 E4.14292
G1 X106.774 Y103.864 E4.15192
G1 X106.535 Y104.101 E4.16312
G1 X106.406 Y104.414 E4.17438
G1 X106.385 Y104.67 E4.18292
G1 X106.457 Y104.996 E4.19403
G1 X106.595 Y105.209 E4.20247
G1 X106.869 Y105.429 E4.21415
G1 X107.192 Y105.543 E4.22555
G1 X107.501 Y105.524 E4.23584
G0 F6000 X106.702 Y105.005
G1 F1200 X106.935 Y105.237 E4.24678
G0 F6000 X107.552 Y105.289
G1 F1200 X106.635 Y104.372 E4.28991
G0 F6000 X106.872 Y104.043
G1 F1200 X107.874 Y105.046 E4.33707
G0 F6000 X108.031 Y104.637
G1 F1200 X107.287 Y103.893 E4.37206
G0 F6000 X107.271 Y103.336
G1 F1500 E-2.12794
;MESH:BUTTON_FIX.STL
G0 F6000 X108.056 Y103.765
G0 X108.312 Y104.152
G0 X108.763 Y105.79
G0 X109.553 Y106.546
G0 X110.975 Y108.092
G0 X111.733 Y108.881
G0 X112.06 Y110.33
G0 X112.888 Y111.157
G1 F1500 E4.37206
G0 F6000 X112.97 Y111.659
;TYPE:WALL-OUTER
G1 F1200 X113.371 Y111.54 E4.38597
G1 X113.735 Y111.323 E4.40007
G1 X114.028 Y111.031 E4.41383
G1 X114.243 Y110.669 E4.42783
G1 X114.363 Y110.267 E4.44179
G1 X114.372 Y110.049 E4.44904
G1 X114.381 Y109.848 E4.45573
G1 X114.298 Y109.447 E4.46935
G1 X114.158 Y109.158 E4.48003
G1 X113.984 Y108.894 E4.49055
G1 X113.676 Y108.609 E4.50451
G1 X113.315 Y108.41 E4.51822
G1 X112.899 Y108.307 E4.53247
G1 X112.56 Y108.299 E4.54375
G1 X112.153 Y108.383 E4.55757
G1 X111.863 Y108.523 E4.56828
G1 X111.599 Y108.696 E4.57878
G1 X111.314 Y109.004 E4.59274
G1 X111.113 Y109.37 E4.60663
G1 X111.037 Y109.677 E4.61715
G1 X110.999 Y109.991 E4.62767
G1 X111.045 Y110.394 E4.64116
G1 X111.161 Y110.687 E4.65164
G1 X111.314 Y110.971 E4.66237
G1 X111.596 Y111.278 E4.67623
G1 X111.951 Y111.512 E4.69037
G1 X112.249 Y111.613 E4.70084
G1 X112.553 Y111.676 E4.71116
G1 X112.97 Y111.659 E4.72505
G0 F6000 X112.434 Y111.243
;TYPE:WALL-INNER
G1 F1200 X112.74 Y111.268 E4.73526
G1 X113.056 Y111.216 E4.74591
G1 X113.345 Y111.09 E4.75639
G1 X113.598 Y110.895 E4.76702
G1 X113.791 Y110.647 E4.77747
G1 X113.918 Y110.357 E4.788
G1 X113.971 Y110.04 E4.79869
G1 X113.972 Y110.033 E4.79893
G1 X113.948 Y109.73 E4.80904
G1 X113.862 Y109.436 E4.81922
G1 X113.676 Y109.155 E4.83043
G1 X113.44 Y108.936 E4.84114
G1 X113.168 Y108.786 E4.85147
G1 X112.845 Y108.706 E4.86254
G1 X112.471 Y108.726 E4.875
G1 X112.208 Y108.791 E4.88401
G1 X111.859 Y109.004 E4.89761
G1 X111.641 Y109.24 E4.90829
G1 X111.483 Y109.527 E4.91919
G1 X111.422 Y109.825 E4.9293
G1 X111.418 Y110.135 E4.93962
G1 X111.482 Y110.441 E4.95001
G1 X111.642 Y110.737 E4.96121
G1 X111.857 Y110.971 E4.97177
G1 X112.139 Y111.156 E4.98299
G1 X112.434 Y111.243 E4.99322
G0 F6000 X112.301 Y110.783
G1 F1200 X112.618 Y110.872 E5.00417
G1 X112.942 Y110.833 E5.01503
G1 X113.24 Y110.686 E5.02608
G1 X113.447 Y110.443 E5.0367
G1 X113.567 Y110.135 E5.04769
G1 X113.572 Y110.017 E5.05162
G1 X113.536 Y109.711 E5.06187
G1 X113.368 Y109.417 E5.07313
G1 X113.116 Y109.215 E5.08387
G1 X112.869 Y109.124 E5.09263
G1 X112.632 Y109.101 E5.10054
G1 X112.385 Y109.151 E5.10893
G1 X112.12 Y109.313 E5.11926
G1 X111.919 Y109.565 E5.12998
G1 X111.832 Y109.773 E5.13748
G1 X111.816 Y110.09 E5.14803
G1 X111.865 Y110.307 E5.15543
G1 X112.045 Y110.584 E5.16642
G1 X112.301 Y110.783 E5.17721
G0 F6000 X112.342 Y110.359
;TYPE:SKIN
G1 F1200 X112.591 Y110.495 E5.18664
