;FLAVOR:Marlin
;TIME:996
;Filament used: 0.335328m
;Layer height: 0.2
;MINX:100.382
;MINY:100.883
;MINZ:0.2
;MAXX:119.049
;MAXY:119.621
;MAXZ:15
;Generated with Cura_SteamEngine 5.0.0
M140 S60
M105
M190 S60
M104 S205
M105
M109 S205
M82 ;absolute extrusion mode
; Ender 3 Custom Start G-code
G92 E0 ; Reset Extruder
G28 ; Home all axes
G1 Z2.0 F3000 ; Move Z Axis up little to prevent scratching of Heat Bed
G1 X0.1 Y20 Z0.3 F5000.0 ; Move to start position
G1 X0.1 Y200.0 Z0.3 F1500.0 E15 ; Draw the first line
G1 X0.4 Y200.0 Z0.3 F5000.0 ; Move to side a little
G1 X0.4 Y20 Z0.3 F1500.0 E30 ; Draw the second line
G92 E0 ; Reset Extruder
G1 Z2.0 F3000 ; Move Z Axis up little to prevent scratching of Heat Bed
G1 X5 Y20 Z0.3 F5000.0 ; Move over to prevent blob squish
G92 E0
G92 E0
G1 F1500 E-6.5
;LAYER_COUNT:75
;LAYER:0
M107
G0 F9000 X114.93 Y101.115 Z0.2
G0 X114.636 Y101.624
;TYPE:SKIRT
G1 F1500 E0
G1 F1724.1 X114.683 Y101.576 E0.00223
G1 X114.93 Y101.115 E0.01963
G1 X115.098 Y101.012 E0.02618
G1 X115.948 Y101.005 E0.05446
G1 X116.142 Y101.087 E0.06146
G1 X116.162 Y101.113 E0.06255
G1 X116.379 Y101.572 E0.07944
G1 X116.419 Y101.614 E0.08137
G1 X115.93 Y101.504 E0.09804
G1 X115.552 Y101.481 E0.11063
G1 X115.285 Y101.492 E0.11952
G1 X114.927 Y101.546 E0.13156
G1 X114.636 Y101.624 E0.14158
G1 F1500 E-6.35842
G0 F9000 X112.077 Y104.071
G1 F1500 E0.14158
G1 F1724.1 X112.163 Y103.877 E0.14864
G1 X112.447 Y103.649 E0.16076
G1 X112.878 Y103.126 E0.1833
G1 X112.803 Y103.289 E0.18926
G1 X112.666 Y103.441 E0.19607
G1 X112.555 Y103.825 E0.20936
G1 X112.578 Y104.093 E0.21831
G1 X112.553 Y104.487 E0.23144
G1 X112.576 Y104.857 E0.24377
G1 X112.646 Y105.219 E0.25604
G1 X112.695 Y105.374 E0.26144
G1 X112.225 Y105.124 E0.27915
G1 X112.083 Y104.949 E0.28664
G1 X112.077 Y104.071 E0.31585
G1 F1500 E-6.18415
G0 F9000 X113.589 Y106.278
G0 X114.657 Y107.334
G1 F1500 E0.31585
G1 F1724.1 X114.944 Y107.411 E0.32573
G1 X115.311 Y107.464 E0.33806
G1 X115.683 Y107.47 E0.35044
G1 X116.052 Y107.43 E0.36278
G1 X116.411 Y107.346 E0.37505
G1 X116.465 Y107.327 E0.37695
G1 X116.213 Y107.77 E0.3939
G1 X116.059 Y107.923 E0.40112
G1 X115.973 Y107.946 E0.40408
G1 X115.145 Y107.948 E0.43162
G1 X114.951 Y107.859 E0.43872
G1 X114.695 Y107.373 E0.45699
G1 X114.657 Y107.334 E0.4588
G1 F1500 E-6.0412
G0 F9000 X116.305 Y107.028
G0 X116.913 Y106.762
G0 X118.366 Y105.483
G1 F1500 E0.4588
G1 F1724.1 X118.502 Y104.981 E0.4761
G1 X118.543 Y104.591 E0.48914
G1 X118.534 Y104.221 E0.50145
G1 X118.48 Y103.853 E0.51382
G1 X118.4 Y103.56 E0.52393
G1 X118.437 Y103.597 E0.52567
G1 X118.896 Y103.846 E0.54303
G1 X119.013 Y104.017 E0.54992
G1 X119.02 Y104.872 E0.57836
G1 X118.947 Y105.062 E0.58513
G1 X118.366 Y105.483 E0.609
G1 F1500 E-5.891
G0 F9000 X116.913 Y106.762
G0 X116.305 Y107.028
G0 X115.655 Y107.135
G0 X109.171 Y106.067
G0 X107.754 Y107.481
;TYPE:SUPPORT-INTERFACE
G1 F1500 E0.609
G1 F1724.1 X107.487 Y107.746 E0.62151
G1 X107.217 Y108.058 E0.63523
G1 X107.045 Y108.317 E0.64557
G1 X106.872 Y108.719 E0.66013
G1 X106.868 Y108.897 E0.66605
G1 X106.559 Y108.589 E0.68056
G1 X106.227 Y108.085 E0.70064
G1 X105.553 Y107.411 E0.73234
G1 X104.192 Y106.064 E0.79603
G1 X104.19 Y106.036 E0.79696
G1 X104.205 Y105.954 E0.79973
G1 X104.243 Y105.856 E0.80323
G1 X105.469 Y105.657 E0.84454
G1 X105.775 Y105.162 E0.8639
G1 X105.57 Y104.511 E0.8866
G1 X105.81 Y104.263 E0.89807
G1 X105.883 Y104.224 E0.90083
G1 X105.994 Y104.189 E0.9047
G1 X106.044 Y104.182 E0.90638
G1 X106.071 Y104.185 E0.90728
G1 X106.074 Y104.186 E0.90739
G1 X108.742 Y106.862 E1.03307
G1 X108.402 Y107 E1.04527
G1 X108.075 Y107.199 E1.05801
G1 X107.754 Y107.481 E1.07222
G1 F1500 E-5.42778
G0 F9000 X107.782 Y109.823
G0 X106.887 Y110.63
G0 X103.737 Y111.527
G0 X102.36 Y112.691
G0 X102.954 Y113.848
G1 F1500 E1.07222
G1 F1724.1 X102.914 Y113.965 E1.07633
G1 X102.629 Y114.112 E1.087
G1 X102.349 Y114.391 E1.10014
G1 X102.174 Y114.74 E1.11313
G1 X102.122 Y115.049 E1.12355
G1 X102.125 Y116.136 E1.1597
G1 X102.25 Y116.507 E1.17272
G1 X102.477 Y116.822 E1.18564
G1 X102.799 Y117.056 E1.19888
G1 X102.908 Y117.092 E1.2027
G1 X103.049 Y117.371 E1.21309
G1 X103.329 Y117.65 E1.22624
G1 X103.681 Y117.833 E1.23943
G1 X103.996 Y117.881 E1.25003
G1 X105.069 Y117.878 E1.28572
G1 X105.445 Y117.757 E1.29886
G1 X105.768 Y117.522 E1.31214
G1 X105.997 Y117.202 E1.32523
G1 X106.031 Y117.098 E1.32887
G1 X106.314 Y116.95 E1.33949
G1 X106.595 Y116.674 E1.35259
G1 X106.774 Y116.316 E1.36591
G1 X106.822 Y116.007 E1.37631
G1 X106.819 Y114.934 E1.41199
G1 X106.698 Y114.558 E1.42513
G1 X106.465 Y114.238 E1.4383
G1 X106.145 Y114.005 E1.45146
G1 X106.036 Y113.971 E1.45526
G1 X105.895 Y113.688 E1.46578
G1 X105.614 Y113.412 E1.47888
G1 X105.267 Y113.23 E1.49191
G1 X104.95 Y113.181 E1.50258
G1 X103.873 Y113.184 E1.5384
G1 X103.5 Y113.306 E1.55145
G1 X103.183 Y113.535 E1.56446
G1 X102.954 Y113.848 E1.57736
G0 F9000 X101.246 Y115.211
G1 F1724.1 X101.257 Y115.173 E1.57867
G1 X101.281 Y115.139 E1.58006
G1 X101.869 Y114.735 E1.60379
G1 X102.161 Y114.186 E1.62447
G1 X102.339 Y113.917 E1.6352
G1 X102.494 Y113.726 E1.64338
G1 X102.662 Y113.558 E1.65128
G1 X102.879 Y113.383 E1.66055
G1 X103.122 Y113.221 E1.67027
G1 X103.662 Y112.941 E1.6905
G1 X104.083 Y112.338 E1.71496
G1 X104.112 Y112.317 E1.71615
G1 X104.154 Y112.305 E1.7176
G1 X104.787 Y112.305 E1.73866
G1 X104.841 Y112.32 E1.74052
G1 X104.865 Y112.337 E1.7415
G1 X105.269 Y112.926 E1.76525
G1 X105.835 Y113.228 E1.78659
G1 X106.066 Y113.382 E1.79582
G1 X106.279 Y113.554 E1.80493
G1 X106.449 Y113.724 E1.81293
G1 X106.621 Y113.937 E1.82203
G1 X106.771 Y114.161 E1.831
G1 X107.077 Y114.734 E1.8526
G1 X107.666 Y115.138 E1.87636
G1 X107.683 Y115.162 E1.87734
G1 X107.698 Y115.216 E1.8792
G1 X107.698 Y115.851 E1.90032
G1 X107.686 Y115.889 E1.90165
G1 X107.664 Y115.922 E1.90297
G1 X107.069 Y116.339 E1.92713
G1 X106.777 Y116.888 E1.94781
G1 X106.624 Y117.12 E1.95706
G1 X106.449 Y117.334 E1.96625
G1 X106.283 Y117.5 E1.97406
G1 X106.062 Y117.681 E1.98356
G1 X105.828 Y117.835 E1.99288
G1 X105.266 Y118.136 E2.01408
G1 X104.865 Y118.721 E2.03767
G1 X104.832 Y118.744 E2.03901
G1 X104.787 Y118.757 E2.04057
G1 X104.152 Y118.757 E2.06169
G1 X104.113 Y118.746 E2.06304
G1 X104.078 Y118.721 E2.06447
G1 X103.667 Y118.128 E2.08846
G1 X103.113 Y117.833 E2.10934
G1 X102.881 Y117.679 E2.1186
G1 X102.667 Y117.504 E2.1278
G1 X102.486 Y117.322 E2.13633
G1 X102.328 Y117.129 E2.14463
G1 X102.168 Y116.888 E2.15425
G1 X101.874 Y116.336 E2.17505
G1 X101.281 Y115.923 E2.19909
G1 X101.258 Y115.891 E2.2004
G1 X101.246 Y115.849 E2.20185
G1 X101.246 Y115.211 E2.22307
G0 F9000 X101.591 Y115.167
G1 F1724.1 X101.923 Y115.5 E2.23871
G0 F9000 X101.922 Y115.3
G1 F1724.1 X101.445 Y115.777 E2.26115
G1 F1500 E-4.23885
G0 F9000 X101.211 Y116.926
G0 X101.633 Y117.643
G0 X102.291 Y118.3
G0 X103.075 Y118.79
G0 X104.503 Y118.079
G1 F1500 E2.26115
G1 F1724.1 X104.834 Y118.411 E2.27674
G1 F1500 E-4.22326
G0 F9000 X105.858 Y118.798
G0 X105.487 Y119.342
G0 X105.208 Y119.535
G0 X104.91 Y119.621
G0 X104.027 Y119.621
G0 X103.738 Y119.537
G0 X101.847 Y117.905
G0 X100.468 Y116.266
G0 X100.382 Y115.975
G0 X100.382 Y115.091
G0 X100.466 Y114.795
G0 X102.092 Y112.907
G0 X103.076 Y112.272
G0 X104.24 Y112.982
G1 F1500 E2.27674
G1 F1724.1 X104.718 Y112.504 E2.29922
G1 F1500 E-4.20078
G0 F9000 X105.007 Y111.468
G0 X105.554 Y108.634
G0 X106.126 Y107.702
G1 F1500 E2.29922
G1 F1724.1 X107.713 Y106.115 E2.37387
G0 F9000 X107.474 Y107.474
G1 F1724.1 X105.685 Y105.685 E2.45802
G0 F9000 X105.814 Y104.62
G1 F1724.1 X106.018 Y104.416 E2.46762
G1 F1500 E-4.03238
;MESH:BUTTON.STL(1)
G0 F9000 X106.773 Y103.662
G0 X110.026 Y106.37
G0 X110.359 Y107.18
G0 X109.838 Y107.772
G0 X108.905 Y108.365
G0 X113.797 Y114.089
G1 F1500 E2.46762
G0 F9000 X113.664 Y114.501
;TYPE:WALL-OUTER
G1 F1724.1 X113.931 Y114.462 E2.47659
G1 X114.139 Y114.323 E2.48491
G1 X114.33 Y114.132 E2.4939
G1 X114.471 Y113.917 E2.50245
G1 X114.516 Y113.667 E2.5109
G1 X114.294 Y113.442 E2.52141
G1 X108.941 Y108.088 E2.77322
G1 X108.583 Y108.349 E2.78796
G1 X108.369 Y108.561 E2.79798
G1 X108.106 Y108.895 E2.81211
G1 X108.114 Y108.944 E2.81377
G1 X113.664 Y114.501 E3.07499
G0 F9000 X113.798 Y114.071
;TYPE:WALL-INNER
G1 F1732.8 X114.011 Y113.887 E3.0843
G1 X114.077 Y113.791 E3.08816
G1 X113.952 Y113.665 E3.09403
G1 F1737.2 X111.492 Y111.203 E3.20892
G1 F1741.5 X109.032 Y108.741 E3.32352
G1 X108.895 Y108.604 E3.3299
G1 X108.671 Y108.822 E3.34019
G1 X108.619 Y108.886 E3.34291
G1 X108.752 Y109.02 E3.34912
G1 X111.212 Y111.482 E3.46372
G1 F1737.2 X113.672 Y113.945 E3.57864
G1 F1732.8 X113.798 Y114.071 E3.58453
G0 F9000 X113.77 Y113.694
G1 F1500 E-2.91547
;MESH:BUTTON.STL(2)
G0 F9000 X110.809 Y110.28
G0 X111.583 Y109.505
G0 X113.875 Y106.541
G0 X114.533 Y105.667
G0 X115.262 Y105.831
G1 F1500 E3.58453
G0 F9000 X115.181 Y106.231
;TYPE:WALL-OUTER
G1 F1724.1 X115.624 Y106.269 E3.59932
G1 X115.937 Y106.218 E3.60987
G1 X116.273 Y106.118 E3.62153
G1 X116.547 Y105.956 E3.63212
G1 X116.819 Y105.745 E3.64357
G1 X117.089 Y105.396 E3.65824
G1 X117.269 Y104.986 E3.67314
G1 X117.321 Y104.673 E3.68369
G1 X117.326 Y104.543 E3.68802
G1 X117.335 Y104.329 E3.69514
G1 X117.248 Y103.903 E3.7096
G1 X117.101 Y103.599 E3.72083
G1 X116.915 Y103.318 E3.73204
G1 X116.589 Y103.017 E3.7468
G1 X116.207 Y102.806 E3.76131
G1 X115.767 Y102.697 E3.77639
G1 X115.407 Y102.689 E3.78837
G1 X114.976 Y102.777 E3.803
G1 X114.673 Y102.923 E3.81418
G1 X114.391 Y103.109 E3.82542
G1 X114.09 Y103.435 E3.84018
G1 X113.876 Y103.823 E3.85491
G1 X113.797 Y104.146 E3.86597
G1 X113.756 Y104.48 E3.87717
G1 X113.805 Y104.907 E3.89146
G1 X113.928 Y105.218 E3.90259
G1 X114.089 Y105.516 E3.91385
G1 X114.388 Y105.842 E3.92856
G1 X114.758 Y106.086 E3.94331
G1 X115.181 Y106.231 E3.95818
G0 F9000 X115.432 Y105.849
;TYPE:WALL-INNER
G1 F1724.1 X115.69 Y105.86 E3.96677
G1 X115.936 Y105.799 E3.9752
G1 X116.186 Y105.713 E3.98399
G1 X116.395 Y105.567 E3.99247
G1 X116.64 Y105.322 E4.00399
G1 X116.809 Y105.037 E4.01501
G1 X116.903 Y104.792 E4.02374
G1 X116.926 Y104.539 E4.03219
G1 X116.926 Y104.526 E4.03262
G1 X116.9 Y104.198 E4.04357
G1 X116.837 Y103.953 E4.05198
G1 X116.706 Y103.727 E4.06067
G1 X116.481 Y103.465 E4.07216
G1 X116.213 Y103.267 E4.08324
G1 X115.89 Y103.14 E4.09478
G1 X115.579 Y103.093 E4.10524
G1 X115.31 Y103.117 E4.11423
G1 X115.026 Y103.189 E4.12397
G1 X114.796 Y103.321 E4.13279
G1 X114.536 Y103.542 E4.14414
G1 X114.339 Y103.813 E4.15528
G1 X114.223 Y104.059 E4.16433
G1 X114.179 Y104.312 E4.17287
G1 X114.176 Y104.636 E4.18365
G1 X114.223 Y104.896 E4.19244
G1 X114.334 Y105.131 E4.20108
G1 X114.534 Y105.41 E4.2125
G1 X114.789 Y105.627 E4.22363
G1 X115.101 Y105.78 E4.23519
G1 X115.432 Y105.849 E4.24644
G0 F9000 X115.463 Y105.483
;TYPE:SKIN
G1 F1724.1 X115.705 Y105.492 E4.25449
G1 X115.979 Y105.411 E4.26399
G1 X116.249 Y105.206 E4.27527
G1 X116.412 Y105 E4.28401
G1 X116.56 Y104.663 E4.29625
G1 X116.566 Y104.499 E4.30171
G1 X116.519 Y104.135 E4.31391
G1 X116.34 Y103.853 E4.32502
G1 X116.127 Y103.648 E4.33486
G1 X115.827 Y103.497 E4.34603
G1 X115.569 Y103.455 E4.35472
G1 X115.262 Y103.501 E4.36505
G1 X114.986 Y103.628 E4.37515
G1 X114.79 Y103.798 E4.38378
G1 X114.585 Y104.112 E4.39625
G1 X114.537 Y104.363 E4.40475
G1 X114.555 Y104.694 E4.41578
G1 X114.655 Y104.967 E4.42545
G1 X114.882 Y105.256 E4.43767
G1 X115.095 Y105.397 E4.44617
G1 X115.463 Y105.483 E4.45874
G0 F9000 X115.452 Y105.269
G1 F1724.1 X114.736 Y104.554 E4.49239
G0 F9000 X114.838 Y104.09
G1 F1724.1 X115.94 Y105.192 E4.54423
G0 F9000 X116.224 Y104.91
G1 F1724.1 X115.104 Y103.791 E4.59688
G0 F9000 X115.539 Y103.659
G1 F1724.1 X116.355 Y104.476 E4.63529
G1 F1500 E-1.86471
;MESH:BUTTON.STL
G0 F9000 X116.823 Y104.537
G0 X116.512 Y105.224
G0 X116.064 Y105.596
G0 X115.66 Y105.679
G0 X114.533 Y105.667
G0 X113.779 Y106.459
G0 X115.41 Y113.516
G0 X115.369 Y113.982
G0 X115.257 Y114.293
G0 X114.992 Y114.694
G0 X114.534 Y115.106
G0 X113.978 Y115.364
G0 X113.589 Y115.388
G0 X107.704 Y114.073
G0 X105.396 Y115.304
G0 X104.546 Y116.298
G1 F1500 E4.63529
G0 F9000 X104.864 Y116.677
;TYPE:WALL-OUTER
G1 F1724.1 X104.919 Y116.606 E4.63828
G1 X104.932 Y116.335 E4.6473
G1 X105.054 Y116.112 E4.65575
G1 X105.276 Y115.992 E4.66415
G1 X105.538 Y115.973 E4.67289
G1 X105.608 Y115.936 E4.67552
G1 X105.622 Y115.671 E4.68435
G1 X105.62 Y115.157 E4.70144
G1 X105.564 Y115.083 E4.70453
G1 X105.276 Y115.07 E4.71412
G1 X105.054 Y114.95 E4.72251
G1 X104.932 Y114.728 E4.73093
G1 X104.92 Y114.451 E4.74016
G1 X104.826 Y114.381 E4.74405
G1 X104.078 Y114.384 E4.76893
G1 X104.024 Y114.458 E4.77198
G1 X104.012 Y114.727 E4.78094
G1 X103.892 Y114.949 E4.78933
G1 X103.669 Y115.071 E4.79778
G1 X103.408 Y115.088 E4.80648
G1 X103.335 Y115.125 E4.80921
G1 X103.323 Y115.392 E4.81809
G1 X103.326 Y115.924 E4.83579
G1 X103.397 Y115.978 E4.83876
G1 X103.668 Y115.991 E4.84778
G1 X103.891 Y116.112 E4.85622
G1 X104.012 Y116.335 E4.86466
G1 X104.029 Y116.594 E4.87329
G1 X104.067 Y116.667 E4.87603
G1 X104.331 Y116.681 E4.88482
G1 X104.864 Y116.677 E4.90255
G0 F9000 X104.355 Y116.12
;TYPE:WALL-INNER
G1 F1724.1 X104.405 Y116.279 E4.90809
G1 X104.54 Y116.278 E4.91258
G1 X104.659 Y115.983 E4.92316
G1 X104.771 Y115.829 E4.9295
G1 X105.059 Y115.649 E4.94079
G1 X105.221 Y115.599 E4.94643
G1 X105.221 Y115.462 E4.95099
G1 X104.923 Y115.343 E4.96166
G1 X104.771 Y115.233 E4.9679
G1 X104.591 Y114.948 E4.97911
G1 X104.54 Y114.783 E4.98486
G1 X104.404 Y114.783 E4.98938
G1 X104.287 Y115.077 E4.9999
G1 X104.175 Y115.233 E5.00629
G1 X103.887 Y115.412 E5.01757
G1 X103.724 Y115.465 E5.02327
G1 X103.725 Y115.599 E5.02773
G1 X104.021 Y115.718 E5.03834
G1 X104.175 Y115.829 E5.04465
G1 X104.355 Y116.12 E5.05603
G0 F9000 X104.538 Y115.531
;TYPE:SKIN
G1 F1311.1 X104.505 Y115.587 E5.05888
G1 X104.441 Y115.587 E5.06167
G1 X104.409 Y115.531 E5.0645
G1 X104.441 Y115.475 E5.06732
G1 X104.505 Y115.475 E5.07012
G1 F1500 E-1.42988
;MESH:NONMESH
G0 F300 X104.505 Y115.475 Z0.4
G0 F9000 X104.702 Y115.303
G0 X104.7 Y114.606
G0 X105.929 Y112.298
G0 X103.341 Y106.293
G0 X103.368 Y105.723
G0 X103.693 Y105.074
G0 X104.568 Y104.178
G0 X105.285 Y103.566
G0 X105.753 Y103.365
G0 X112.786 Y102.971
;TIME_ELAPSED:23.969436
;LAYER:1
M106 S85
;TYPE:SUPPORT
G1 F1500 E5.07012
G1 F2244.4 X113.006 Y102.665 E5.07867
G1 F2470.6 X113.257 Y102.359 E5.08683
G1 F2500.8 X113.54 Y102.092 E5.09476
G1 F2542.4 X113.853 Y101.86 E5.10257
G1 F2521.4 X114.169 Y101.677 E5.10994
G1 F2329.7 X114.483 Y101.526 E5.11756
G1 F1796.8 X114.886 Y101.347 E5.13007
G1 F1509.1 X115.189 Y101.299 E5.14042
G1 F1520.4 X115.545 Y101.281 E5.15237
G1 F1524.1 X115.907 Y101.297 E5.16448
G1 F1563 X116.322 Y101.385 E5.17831
G1 F1851.1 X116.58 Y101.523 E5.18636
G1 F1885.3 X116.413 Y101.329 E5.19328
G1 F1603.9 X116.284 Y101.097 E5.20171
G1 F1527.9 X116.131 Y100.936 E5.20912
G1 F1516.6 X115.92 Y100.89 E5.21637
G1 F1520.4 X115.552 Y100.883 E5.2287
G1 F1516.6 X115.131 Y100.892 E5.24285
G1 F1509.1 X114.939 Y100.962 E5.24975
G1 F1520.4 X114.777 Y101.153 E5.25814
G1 F1725.9 X114.552 Y101.474 E5.26971
G1 F2091.2 X114.483 Y101.526 E5.27182
G0 F9900 X116.58 Y101.523
G1 F2303.4 X116.88 Y101.653 E5.27905
G1 F2500.8 X117.201 Y101.83 E5.28652
G1 F2531.8 X117.476 Y102.029 E5.29335
G1 F1500 E-1.20665
G0 F9900 X117.859 Y102.613
G0 X118.305 Y103.338
G0 X118.5 Y104.05
G0 X118.515 Y104.786
G0 X118.307 Y105.577
G0 X118.116 Y106.24
G1 F1500 E5.29335
G1 F2574.4 X117.854 Y106.574 E5.30175
G1 F2490.7 X117.61 Y106.818 E5.30881
G1 F2511.1 X117.299 Y107.058 E5.31678
G1 F2542.4 X116.984 Y107.246 E5.32413
G1 F2384.1 X116.63 Y107.419 E5.33255
G0 F9900 X114.53 Y107.451
