;FLAVOR:Marlin
;TIME:976
;Filament used: 0.330119m
;Layer height: 0.2
;MINX:100.972
;MINY:100.977
;MINZ:0.2
;MAXX:119.049
;MAXY:119.031
;MAXZ:15
;Generated with Cura_SteamEngine 5.0.0
M140 S60
M105
M190 S60
M104 S205
M105
M109 S205
M82 ;absolute extrusion mode
; Ender 3 Custom Start G-code
G92 E0 ; Reset Extruder
G28 ; Home all axes
G1 Z2.0 F3000 ; Move Z Axis up little to prevent scratching of Heat Bed
G1 X0.1 Y20 Z0.3 F5000.0 ; Move to start position
G1 X0.1 Y200.0 Z0.3 F1500.0 E15 ; Draw the first line
G1 X0.4 Y200.0 Z0.3 F5000.0 ; Move to side a little
G1 X0.4 Y20 Z0.3 F1500.0 E30 ; Draw the second line
G92 E0 ; Reset Extruder
G1 Z2.0 F3000 ; Move Z Axis up little to prevent scratching of Heat Bed
G1 X5 Y20 Z0.3 F5000.0 ; Move over to prevent blob squish
G92 E0
G92 E0
G1 F1500 E-6.5
;LAYER_COUNT:75
;LAYER:0
M107
;MESH:BUTTON.STL(1)
G0 F9000 X113.664 Y114.501 Z0.2
;TYPE:WALL-OUTER
G1 F1500 E0
G1 F600 X113.931 Y114.462 E0.00897
G1 X114.139 Y114.323 E0.0173
G1 X114.33 Y114.132 E0.02628
G1 X114.471 Y113.917 E0.03483
G1 X114.516 Y113.667 E0.04328
G1 X114.294 Y113.442 E0.05379
G1 X108.941 Y108.088 E0.3056
G1 X108.583 Y108.349 E0.32034
G1 X108.369 Y108.561 E0.33036
G1 X108.106 Y108.895 E0.3445
G1 X108.114 Y108.944 E0.34615
G1 X113.664 Y114.501 E0.60737
G0 F9000 X113.798 Y114.071
;TYPE:WALL-INNER
G1 F603 X114.011 Y113.887 E0.61668
G1 X114.077 Y113.791 E0.62054
G1 X113.952 Y113.665 E0.62641
G1 F604.5 X111.492 Y111.203 E0.7413
G1 F606.1 X109.032 Y108.741 E0.8559
G1 X108.895 Y108.604 E0.86228
G1 X108.671 Y108.822 E0.87258
G1 X108.619 Y108.886 E0.87529
G1 X108.752 Y109.02 E0.88151
G1 X111.212 Y111.482 E0.99611
G1 F604.5 X113.672 Y113.945 E1.11102
G1 F603 X113.798 Y114.071 E1.11692
G0 F9000 X113.77 Y113.694
G1 F1500 E-5.38308
;MESH:BUTTON.STL(2)
G0 F9000 X110.809 Y110.28
G0 X111.583 Y109.506
G0 X113.875 Y106.541
G0 X114.533 Y105.667
G0 X115.262 Y105.831
G1 F1500 E1.11692
G0 F9000 X115.181 Y106.231
;TYPE:WALL-OUTER
G1 F600 X115.624 Y106.269 E1.13171
G1 X115.937 Y106.218 E1.14225
G1 X116.273 Y106.118 E1.15391
G1 X116.547 Y105.956 E1.1645
G1 X116.819 Y105.745 E1.17595
G1 X117.089 Y105.396 E1.19063
G1 X117.269 Y104.986 E1.20552
G1 X117.321 Y104.673 E1.21607
G1 X117.326 Y104.543 E1.2204
G1 X117.335 Y104.329 E1.22752
G1 X117.248 Y103.903 E1.24198
G1 X117.101 Y103.599 E1.25322
G1 X116.915 Y103.318 E1.26442
G1 X116.589 Y103.017 E1.27918
G1 X116.207 Y102.806 E1.2937
G1 X115.767 Y102.697 E1.30877
G1 X115.407 Y102.689 E1.32075
G1 X114.976 Y102.777 E1.33538
G1 X114.673 Y102.923 E1.34657
G1 X114.391 Y103.109 E1.3578
G1 X114.09 Y103.435 E1.37256
G1 X113.876 Y103.823 E1.3873
G1 X113.797 Y104.146 E1.39836
G1 X113.756 Y104.48 E1.40955
G1 X113.805 Y104.907 E1.42385
G1 X113.928 Y105.218 E1.43497
G1 X114.089 Y105.516 E1.44624
G1 X114.388 Y105.842 E1.46095
G1 X114.758 Y106.086 E1.47569
G1 X115.181 Y106.231 E1.49056
G0 F9000 X115.432 Y105.849
;TYPE:WALL-INNER
G1 F600 X115.69 Y105.86 E1.49915
G1 X115.936 Y105.799 E1.50758
G1 X116.186 Y105.713 E1.51637
G1 X116.395 Y105.567 E1.52485
G1 X116.64 Y105.322 E1.53638
G1 X116.809 Y105.037 E1.5474
G1 X116.903 Y104.792 E1.55613
G1 X116.926 Y104.539 E1.56458
G1 X116.926 Y104.526 E1.56501
G1 X116.9 Y104.198 E1.57595
G1 X116.837 Y103.953 E1.58437
G1 X116.706 Y103.727 E1.59305
G1 X116.481 Y103.465 E1.60454
G1 X116.213 Y103.267 E1.61562
G1 X115.89 Y103.14 E1.62717
G1 X115.579 Y103.093 E1.63763
G1 X115.31 Y103.117 E1.64661
G1 X115.026 Y103.189 E1.65635
G1 X114.796 Y103.321 E1.66517
G1 X114.536 Y103.542 E1.67652
G1 X114.339 Y103.813 E1.68767
G1 X114.223 Y104.059 E1.69671
G1 X114.179 Y104.312 E1.70525
G1 X114.176 Y104.636 E1.71603
G1 X114.223 Y104.896 E1.72482
G1 X114.334 Y105.131 E1.73346
G1 X114.534 Y105.41 E1.74488
G1 X114.789 Y105.627 E1.75602
G1 X115.101 Y105.78 E1.76758
G1 X115.432 Y105.849 E1.77882
G0 F9000 X115.463 Y105.483
;TYPE:SKIN
G1 F600 X115.705 Y105.492 E1.78688
G1 X115.979 Y105.411 E1.79638
G1 X116.249 Y105.206 E1.80765
G1 X116.412 Y105 E1.81639
G1 X116.56 Y104.663 E1.82863
G1 X116.566 Y104.499 E1.83409
G1 X116.519 Y104.135 E1.8463
G1 X116.34 Y103.853 E1.85741
G1 X116.127 Y103.648 E1.86724
G1 X115.827 Y103.497 E1.87841
G1 X115.569 Y103.455 E1.88711
G1 X115.262 Y103.501 E1.89743
G1 X114.986 Y103.628 E1.90754
G1 X114.79 Y103.798 E1.91616
G1 X114.585 Y104.112 E1.92864
G1 X114.537 Y104.363 E1.93714
G1 X114.555 Y104.694 E1.94816
G1 X114.655 Y104.967 E1.95783
G1 X114.882 Y105.256 E1.97005
G1 X115.095 Y105.397 E1.97855
G1 X115.463 Y105.483 E1.99112
G0 F9000 X115.452 Y105.269
G1 F600 X114.736 Y104.554 E2.02478
G0 F9000 X114.838 Y104.09
G1 F600 X115.94 Y105.192 E2.07661
G0 F9000 X116.224 Y104.91
G1 F600 X115.104 Y103.791 E2.12927
G0 F9000 X115.539 Y103.659
G1 F600 X116.355 Y104.476 E2.16767
G1 F1500 E-4.33233
;MESH:BUTTON.STL
G0 F9000 X116.823 Y104.537
G0 X116.512 Y105.224
G0 X116.064 Y105.596
G0 X115.66 Y105.679
G0 X114.533 Y105.667
G0 X113.779 Y106.459
G0 X108.83 Y107.189
G0 X108.275 Y107.47
G0 X107.486 Y108.261
G0 X107.26 Y108.691
G0 X106.077 Y114.371
G0 X105.396 Y115.304
G0 X104.546 Y116.298
G1 F1500 E2.16767
G0 F9000 X104.864 Y116.677
;TYPE:WALL-OUTER
G1 F600 X104.919 Y116.606 E2.17066
G1 X104.932 Y116.335 E2.17968
G1 X105.054 Y116.112 E2.18814
G1 X105.276 Y115.992 E2.19653
G1 X105.538 Y115.973 E2.20527
G1 X105.608 Y115.936 E2.2079
G1 X105.622 Y115.671 E2.21673
G1 X105.62 Y115.157 E2.23382
G1 X105.564 Y115.083 E2.23691
G1 X105.276 Y115.07 E2.2465
G1 X105.054 Y114.95 E2.25489
G1 X104.932 Y114.728 E2.26332
G1 X104.92 Y114.451 E2.27254
G1 X104.826 Y114.381 E2.27644
G1 X104.078 Y114.384 E2.30132
G1 X104.024 Y114.458 E2.30436
G1 X104.012 Y114.727 E2.31332
G1 X103.892 Y114.949 E2.32171
G1 X103.669 Y115.071 E2.33017
G1 X103.408 Y115.088 E2.33887
G1 X103.335 Y115.125 E2.34159
G1 X103.323 Y115.392 E2.35048
G1 X103.326 Y115.924 E2.36817
G1 X103.397 Y115.978 E2.37114
G1 X103.668 Y115.991 E2.38016
G1 X103.891 Y116.112 E2.3886
G1 X104.012 Y116.335 E2.39704
G1 X104.029 Y116.594 E2.40567
G1 X104.067 Y116.667 E2.40841
G1 X104.331 Y116.681 E2.4172
G1 X104.864 Y116.677 E2.43493
G0 F9000 X104.355 Y116.12
;TYPE:WALL-INNER
G1 F600 X104.405 Y116.279 E2.44048
G1 X104.54 Y116.278 E2.44497
G1 X104.659 Y115.983 E2.45555
G1 X104.771 Y115.829 E2.46188
G1 X105.059 Y115.649 E2.47318
G1 X105.221 Y115.599 E2.47881
G1 X105.221 Y115.462 E2.48337
G1 X104.923 Y115.343 E2.49404
G1 X104.771 Y115.233 E2.50028
G1 X104.591 Y114.948 E2.5115
G1 X104.54 Y114.783 E2.51724
G1 X104.404 Y114.783 E2.52176
G1 X104.287 Y115.077 E2.53229
G1 X104.175 Y115.233 E2.53867
G1 X103.887 Y115.412 E2.54995
G1 X103.724 Y115.465 E2.55565
G1 X103.725 Y115.599 E2.56011
G1 X104.021 Y115.718 E2.57072
G1 X104.175 Y115.829 E2.57704
G1 X104.355 Y116.12 E2.58842
G0 F9000 X104.538 Y115.531
;TYPE:SKIN
G1 F456.3 X104.505 Y115.587 E2.59126
G1 X104.441 Y115.587 E2.59406
G1 X104.409 Y115.531 E2.59688
G1 X104.441 Y115.475 E2.5997
G1 X104.505 Y115.475 E2.6025
G1 F1500 E-3.8975
;MESH:NONMESH
G0 F300 X104.505 Y115.475 Z0.4
G0 F9000 X104.702 Y115.303
G0 X105.396 Y115.304
G0 X106.077 Y114.371
G0 X109.325 Y111.383
G0 X113.283 Y114.896
;TIME_ELAPSED:16.009138
;LAYER:1
M106 S85
;TYPE:WALL-OUTER
;MESH:BUTTON.STL(1)
G1 F1500 E2.6025
G1 F992.1 X113.627 Y114.927 E2.61399
G1 X113.877 Y114.819 E2.62305
G1 X114.099 Y114.667 E2.63199
G1 X114.442 Y114.36 E2.6473
G1 X114.675 Y114.093 E2.65909
G1 X114.826 Y113.863 E2.66824
G1 X114.919 Y113.626 E2.67671
G1 X114.938 Y113.519 E2.68032
G1 X114.956 Y113.419 E2.6837
G1 X114.843 Y113.217 E2.6914
G1 X109.307 Y107.676 E2.95192
G1 X109.085 Y107.817 E2.96066
G1 X109.045 Y107.851 E2.96241
G1 X107.869 Y109.024 E3.01765
G1 X107.695 Y109.265 E3.02754
G1 X107.888 Y109.495 E3.03753
G1 X113.283 Y114.896 E3.29143
G0 F9900 X113.476 Y114.523
;TYPE:WALL-INNER
G1 F992.1 X113.683 Y114.467 E3.29856
G1 X114.088 Y114.139 E3.3159
G1 X114.341 Y113.866 E3.32828
G1 X114.511 Y113.598 E3.33883
G1 X114.539 Y113.479 E3.3429
G1 X109.262 Y108.199 E3.59118
G1 X108.209 Y109.251 E3.64069
G1 X113.476 Y114.523 E3.88855
G0 F9900 X113.58 Y113.986
;TYPE:SKIN
G1 F679.5 X113.811 Y113.78 E3.90358
G1 X113.994 Y113.576 E3.91689
G1 F680.7 X109.262 Y108.838 E4.2415
G1 X108.849 Y109.251 E4.26982
G1 X113.58 Y113.986 E4.5943
G1 F1500 E-1.9057
G0 F9900 X113.814 Y114.25
G0 X113.426 Y114.718
G0 X112.545 Y115.626
;TYPE:WALL-OUTER
G1 F1500 E4.5943
G1 F984.7 X112.748 Y115.725 E4.60186
G1 X112.902 Y115.709 E4.60705
G1 X112.943 Y115.594 E4.61114
G1 X112.936 Y115.531 E4.61327
G1 X112.84 Y115.35 E4.62013
G1 F987.1 X107.214 Y109.722 E4.88613
G1 X106.984 Y109.914 E4.89615
G1 X106.932 Y110.005 E4.89965
G1 X107.053 Y110.129 E4.90544
G1 X112.545 Y115.626 E5.16518
G1 F1500 E-1.33482
G0 F9900 X113.808 Y115.77
G0 X114.306 Y115.574
G0 X115.07 Y114.955
G0 X115.502 Y114.408
G0 X115.776 Y113.795
G0 X115.337 Y112.817
G1 F1500 E5.16518
G1 F982.2 X115.574 Y112.943 E5.1742
G1 X115.701 Y112.908 E5.17862
G1 X115.741 Y112.782 E5.18306
G1 X115.737 Y112.735 E5.18465
G1 X115.623 Y112.531 E5.1925
G1 X112.88 Y109.789 E5.32279
G1 F984.7 X110.137 Y107.046 E5.45278
G1 X110.01 Y106.924 E5.45868
G1 X109.784 Y107.115 E5.46859
G1 X109.731 Y107.208 E5.47218
G1 X109.852 Y107.33 E5.47794
G1 X112.594 Y110.073 E5.6079
G1 F982.2 X115.337 Y112.817 E5.73824
G1 F1500 E-0.76176
;MESH:BUTTON.STL(2)
G0 F9900 X116.236 Y111.916
G0 X115.54 Y107.457
G0 X115.494 Y106.362
G1 F1500 E5.73824
G0 F9900 X115.508 Y106.592
;TYPE:WALL-OUTER
G1 F992.1 X115.762 Y106.581 E5.7467
G1 X116.022 Y106.537 E5.75547
G1 X116.262 Y106.466 E5.76379
G1 X116.518 Y106.358 E5.77303
G1 X116.74 Y106.223 E5.78167
G1 X116.95 Y106.061 E5.79049
G1 X117.131 Y105.878 E5.79906
G1 X117.295 Y105.67 E5.80787
G1 X117.43 Y105.445 E5.81659
G1 X117.541 Y105.194 E5.82572
G1 X117.608 Y104.953 E5.83404
G1 X117.653 Y104.692 E5.84285
G1 X117.659 Y104.563 E5.84714
G1 X117.654 Y104.31 E5.85556
G1 X117.616 Y104.047 E5.8644
G1 X117.548 Y103.798 E5.87298
G1 X117.445 Y103.547 E5.88201
G1 X117.317 Y103.323 E5.89059
G1 X117.164 Y103.116 E5.89915
G1 X116.986 Y102.928 E5.90776
G1 X116.787 Y102.766 E5.9163
G1 X116.55 Y102.623 E5.9255
G1 X116.316 Y102.504 E5.93423
G1 X116.055 Y102.42 E5.94335
G1 X115.686 Y102.376 E5.95571
G1 X115.376 Y102.369 E5.96603
G1 X115.119 Y102.406 E5.97466
G1 X114.765 Y102.517 E5.987
G1 X114.506 Y102.641 E5.99655
G1 X114.295 Y102.779 E6.00494
G1 X114.091 Y102.951 E6.01381
G1 X113.913 Y103.142 E6.0225
G1 X113.756 Y103.362 E6.03149
G1 X113.637 Y103.583 E6.03983
G1 X113.542 Y103.818 E6.04827
G1 X113.469 Y104.107 E6.05818
G1 X113.441 Y104.358 E6.06658
G1 X113.448 Y104.734 E6.07909
G1 X113.494 Y104.981 E6.08744
G1 X113.576 Y105.247 E6.0967
G1 X113.687 Y105.48 E6.10529
G1 X113.827 Y105.703 E6.11404
G1 X113.991 Y105.907 E6.12275
G1 X114.178 Y106.087 E6.13138
G1 X114.392 Y106.246 E6.14025
G1 X114.618 Y106.376 E6.14892
G1 X114.873 Y106.484 E6.15813
G1 X115.234 Y106.56 E6.1704
G1 X115.508 Y106.592 E6.17958
G0 F9900 X115.093 Y106.127
;TYPE:WALL-INNER
G1 F992.1 X115.342 Y106.169 E6.18798
G1 X115.632 Y106.187 E6.19764
G1 X115.931 Y106.147 E6.20767
G1 X116.212 Y106.053 E6.21753
G1 X116.436 Y105.941 E6.22586
G1 X116.684 Y105.761 E6.23605
G1 X116.89 Y105.537 E6.24617
G1 X117.074 Y105.261 E6.2572
G1 X117.194 Y104.949 E6.26832
G1 X117.255 Y104.65 E6.27847
G1 X117.259 Y104.546 E6.28193
G1 X117.246 Y104.232 E6.29239
G1 X117.169 Y103.926 E6.30288
G1 X117.039 Y103.629 E6.31367
G1 X116.858 Y103.374 E6.32407
G1 X116.63 Y103.145 E6.33481
G1 X116.369 Y102.98 E6.34508
G1 X116.058 Y102.842 E6.3564
G1 X115.774 Y102.778 E6.36608
G1 X115.4 Y102.77 E6.37853
G1 X115.117 Y102.82 E6.38808
G1 X114.797 Y102.936 E6.3994
G1 X114.534 Y103.1 E6.40971
G1 X114.289 Y103.315 E6.42055
G1 X114.096 Y103.573 E6.43127
G1 X113.953 Y103.85 E6.44164
G1 X113.863 Y104.176 E6.45289
G1 X113.835 Y104.48 E6.46304
G1 X113.865 Y104.788 E6.47333
G1 X113.95 Y105.101 E6.48412
G1 X114.087 Y105.366 E6.49404
G1 X114.287 Y105.637 E6.50525
G1 X114.523 Y105.845 E6.51571
G1 X114.796 Y106.017 E6.52644
G1 X115.093 Y106.127 E6.53698
G0 F9900 X115.054 Y105.733
;TYPE:SKIN
G1 F992.1 X115.365 Y105.809 E6.54762
G1 X115.67 Y105.816 E6.55777
G1 X116.004 Y105.749 E6.5691
G1 X116.249 Y105.632 E6.57813
G1 X116.526 Y105.4 E6.59015
G1 X116.754 Y105.093 E6.60287
G1 X116.847 Y104.843 E6.61174
G1 X116.895 Y104.478 E6.62398
G1 X116.851 Y104.114 E6.63618
G1 X116.706 Y103.788 E6.64805
G1 X116.537 Y103.565 E6.65735
G1 X116.275 Y103.337 E6.6689
G1 X116.035 Y103.212 E6.6779
G1 X115.698 Y103.146 E6.68933
G1 X115.425 Y103.132 E6.69842
G1 X115.134 Y103.188 E6.70827
G1 X114.879 Y103.306 E6.71762
G1 X114.584 Y103.542 E6.73018
G1 X114.362 Y103.832 E6.74233
G1 X114.259 Y104.075 E6.75111
G1 X114.204 Y104.427 E6.76296
G1 X114.235 Y104.796 E6.77528
G1 X114.327 Y105.05 E6.78426
G1 X114.531 Y105.355 E6.79646
G1 X114.812 Y105.607 E6.80902
G1 X115.054 Y105.733 E6.81809
G0 F9900 X115.558 Y105.624
G1 F992.1 X116.686 Y104.496 E6.87115
G0 F9900 X116.592 Y104.024
G1 F992.1 X115.097 Y105.52 E6.94149
G0 F9900 X114.758 Y105.293
G1 F992.1 X116.366 Y103.685 E7.01713
G0 F9900 X116.043 Y103.442
G1 F992.1 X114.513 Y104.972 E7.0891
G0 F9900 X114.409 Y104.51
G1 F992.1 X115.567 Y103.352 E7.14357
G1 F1500 E0.64357
;MESH:BUTTON.STL
G0 F9900 X115.588 Y102.875
G0 X114.783 Y103.129
G0 X114.285 Y103.574
G0 X114.021 Y104.204
G0 X114.031 Y104.567
G0 X114.161 Y105.754
G0 X113.402 Y106.541
G0 X110.167 Y106.044
G0 X109.859 Y106.052
G0 X109.393 Y106.283
G0 X106.301 Y109.371
G0 X106.085 Y109.805
G0 X106.091 Y114.345
G0 X105.424 Y115.277
G0 X104.571 Y116.326
G1 F1500 E7.14357
G0 F9900 X104.871 Y116.706
;TYPE:WALL-OUTER
G1 F992.1 X104.947 Y116.623 E7.14731
G1 X104.96 Y116.35 E7.1564
G1 X105.073 Y116.141 E7.1643
G1 X105.346 Y116.011 E7.17436
G1 X105.621 Y115.98 E7.18356
G1 X105.648 Y115.704 E7.19279
G1 X105.648 Y115.158 E7.21095
G1 X105.592 Y115.067 E7.2145
G1 X105.291 Y115.043 E7.22454
G1 X105.08 Y114.929 E7.23252
G1 X104.953 Y114.657 E7.2425
G1 X104.921 Y114.381 E7.25175
G1 X104.646 Y114.355 E7.26093
G1 X104.074 Y114.355 E7.27996
G1 X103.998 Y114.439 E7.28373
G1 X103.985 Y114.712 E7.29282
G1 X103.872 Y114.92 E7.30069
G1 X103.653 Y115.043 E7.30904
G1 X103.38 Y115.062 E7.31814
G1 X103.308 Y115.119 E7.3212
G1 X103.295 Y115.374 E7.32969
G1 X103.297 Y115.929 E7.34815
G1 X103.38 Y116.005 E7.35189
G1 X103.653 Y116.018 E7.36098
G1 X103.862 Y116.131 E7.36889
G1 X103.992 Y116.399 E7.37879
G1 X104.018 Y116.663 E7.38762
G1 X104.124 Y116.709 E7.39146
G1 X104.871 Y116.706 E7.41631
G0 F9900 X104.323 Y116.126
;TYPE:WALL-INNER
G1 F992.1 X104.379 Y116.308 E7.42264
G1 X104.566 Y116.307 E7.42886
G1 X104.676 Y116.017 E7.43917
G1 X104.792 Y115.857 E7.44575
G1 X105.065 Y115.681 E7.45655
G1 X105.248 Y115.625 E7.46292
G1 X105.248 Y115.436 E7.4692
G1 X104.955 Y115.326 E7.47961
G1 X104.796 Y115.211 E7.48614
G1 X104.62 Y114.93 E7.49717
G1 X104.567 Y114.755 E7.50325
G1 X104.379 Y114.755 E7.5095
G1 X104.269 Y115.044 E7.51979
G1 X104.152 Y115.206 E7.52643
G1 X103.878 Y115.381 E7.53725
G1 X103.696 Y115.439 E7.5436
G1 X103.696 Y115.624 E7.54975
G1 X103.986 Y115.734 E7.56007
G1 X104.147 Y115.851 E7.56669
G1 X104.323 Y116.126 E7.57755
G0 F9900 X104.546 Y115.532
;TYPE:SKIN
G1 F670.3 X104.509 Y115.596 E7.58119
G1 X104.435 Y115.596 E7.58483
G1 X104.399 Y115.532 E7.58844
G1 X104.436 Y115.468 E7.59208
G1 X104.509 Y115.468 E7.59568
G1 F1500 E1.09568
;MESH:NONMESH
G0 F300 X104.509 Y115.468 Z0.6
G0 F9900 X104.726 Y115.283
G0 X105.418 Y115.767
G0 X106.513 Y115.767
G0 X111.929 Y116.238
G0 X112.399 Y115.767
;TIME_ELAPSED:30.830248
;LAYER:2
M106 S170
;TYPE:WALL-OUTER
;MESH:BUTTON.STL(1)
G1 F1500 E7.59568
G1 F1150.6 X112.609 Y115.885 E7.60369
G1 X112.887 Y115.882 E7.61293
G1 X113.041 Y115.804 E7.61868
