;FLAVOR:Marlin
;TIME:781
;Filament used: 0.213274m
;Layer height: 0.2
;MINX:88.632
;MINY:89.669
;MINZ:0.2
;MAXX:122.87
;MAXY:115.431
;MAXZ:15
;Generated with Cura_SteamEngine 5.0.0
M140 S60
M105
M190 S60
M104 S200
M105
M109 S200
M82 ;absolute extrusion mode
; Ender 3 Custom Start G-code
G92 E0 ; Reset Extruder
G28 ; Home all axes
G1 Z2.0 F3000 ; Move Z Axis up little to prevent scratching of Heat Bed
G1 X0.1 Y20 Z0.3 F5000.0 ; Move to start position
G1 X0.1 Y200.0 Z0.3 F1500.0 E15 ; Draw the first line
G1 X0.4 Y200.0 Z0.3 F5000.0 ; Move to side a little
G1 X0.4 Y20 Z0.3 F1500.0 E30 ; Draw the second line
G92 E0 ; Reset Extruder
G1 Z2.0 F3000 ; Move Z Axis up little to prevent scratching of Heat Bed
G1 X5 Y20 Z0.3 F5000.0 ; Move over to prevent blob squish
G92 E0
G92 E0
G1 F1500 E-6.5
;LAYER_COUNT:75
;LAYER:0
M107
G0 F6000 X92.527 Y93.318 Z0.2
G0 X88.632 Y102.095
;TYPE:SKIRT
G1 F1500 E0
G1 F1200 X88.643 Y101.847 E0.00826
G1 X88.724 Y100.912 E0.03947
G1 X88.942 Y99.742 E0.07906
G1 X89.047 Y99.309 E0.09387
G1 X89.306 Y98.407 E0.12509
G1 X89.673 Y97.461 E0.15884
G1 X89.778 Y97.223 E0.16749
G1 X90.193 Y96.382 E0.19868
G1 X90.869 Y95.3 E0.24111
G1 X91.125 Y94.939 E0.25583
G1 X91.7 Y94.198 E0.28703
G1 X92.341 Y93.503 E0.31848
G1 X92.527 Y93.318 E0.3272
G1 X93.549 Y92.42 E0.37245
G1 X93.713 Y92.293 E0.37935
G1 X94.83 Y91.533 E0.42428
G1 X95.064 Y91.394 E0.43334
G1 X95.89 Y90.95 E0.46453
G1 X97.111 Y90.447 E0.50845
G1 X97.481 Y90.32 E0.52146
G1 X98.38 Y90.053 E0.55265
G1 X99.223 Y89.877 E0.58129
G1 X99.567 Y89.819 E0.5929
G1 X100.498 Y89.703 E0.6241
G1 X101.69 Y89.67 E0.66376
G1 X102.863 Y89.701 E0.70279
G1 X105.451 Y89.746 E0.78888
G1 X108.03 Y89.717 E0.87467
G1 X109.687 Y89.669 E0.9298
G1 X110.625 Y89.681 E0.961
G1 X111.336 Y89.745 E0.98474
G1 X111.722 Y89.792 E0.99768
G1 X112.647 Y89.945 E1.02886
G1 X113.545 Y90.173 E1.05968
G1 X113.799 Y90.249 E1.06849
G1 X115.055 Y90.709 E1.11298
G1 X115.295 Y90.814 E1.1217
G1 X116.137 Y91.226 E1.15287
G1 X117.226 Y91.903 E1.19552
G1 X117.64 Y92.195 E1.21237
G1 X118.383 Y92.768 E1.24358
G1 X119.074 Y93.402 E1.27477
G1 X119.671 Y94.048 E1.30403
G1 X119.902 Y94.319 E1.31587
G1 X120.48 Y95.058 E1.34708
G1 X121.052 Y95.946 E1.38221
G1 X121.247 Y96.283 E1.39516
G1 X121.682 Y97.114 E1.42635
G1 X122.188 Y98.395 E1.47216
G1 X122.288 Y98.703 E1.48293
G1 X122.54 Y99.607 E1.51415
G1 X122.675 Y100.284 E1.53711
G1 X122.715 Y100.523 E1.54517
G1 X122.83 Y101.454 E1.57637
G1 X122.87 Y102.248 E1.60281
G1 X122.864 Y103.185 E1.63398
G1 X122.732 Y104.426 E1.67548
G1 X122.667 Y104.822 E1.68883
G1 X122.476 Y105.74 E1.72002
G1 X122.213 Y106.621 E1.7506
G1 X122.119 Y106.894 E1.7602
G1 X121.593 Y108.158 E1.80574
G1 X121.488 Y108.372 E1.81367
G1 X121.04 Y109.196 E1.84486
G1 X120.523 Y109.978 E1.87604
G1 X119.971 Y110.69 E1.90601
G1 X119.357 Y111.399 E1.9372
G1 X118.819 Y111.931 E1.96237
G1 X118.624 Y112.111 E1.97119
G1 X117.908 Y112.717 E2.00239
G1 X117.415 Y113.079 E2.02273
G1 X117.166 Y113.251 E2.0328
G1 X116.372 Y113.75 E2.06399
G1 X115.138 Y114.357 E2.10973
G1 X114.835 Y114.483 E2.12064
G1 X113.954 Y114.806 E2.15185
G1 X113.309 Y114.99 E2.17416
G1 X112.977 Y115.074 E2.18555
G1 X111.63 Y115.327 E2.23114
G1 X111.428 Y115.352 E2.23791
G1 X110.493 Y115.427 E2.26911
G1 X109.794 Y115.431 E2.29235
G1 X106.82 Y115.354 E2.3913
G1 X104.281 Y115.363 E2.47575
G1 X101.821 Y115.431 E2.5576
G1 X100.883 Y115.417 E2.5888
G1 X99.993 Y115.336 E2.61853
G1 X99.065 Y115.2 E2.64972
G1 X98.411 Y115.054 E2.67201
G1 X98.164 Y114.991 E2.68049
G1 X97.266 Y114.72 E2.71169
G1 X96.395 Y114.375 E2.74285
G1 X95.944 Y114.161 E2.75945
G1 X95.55 Y113.963 E2.77412
G1 X94.73 Y113.506 E2.80534
G1 X94.095 Y113.085 E2.83068
G1 X93.92 Y112.96 E2.83783
G1 X92.842 Y112.081 E2.88409
G1 X92.694 Y111.944 E2.8908
G1 X91.753 Y110.959 E2.93611
G1 X91.55 Y110.718 E2.94659
G1 X90.977 Y109.975 E2.9778
G1 X90.264 Y108.82 E3.02294
G1 X90.05 Y108.42 E3.03803
G1 X89.643 Y107.575 E3.06923
G1 X89.31 Y106.698 E3.10043
G1 X89.103 Y106 E3.12464
G1 X88.994 Y105.581 E3.13904
G1 X88.797 Y104.664 E3.17024
G1 X88.677 Y103.718 E3.20196
G1 X88.658 Y103.488 E3.20963
G1 X88.632 Y102.095 E3.25597
G0 F6000 X89.031 Y102.112
G1 F1200 X89.042 Y101.864 E3.26423
G1 X89.123 Y100.947 E3.29485
G1 X89.331 Y99.836 E3.33244
G1 X89.436 Y99.403 E3.34726
G1 X89.691 Y98.519 E3.37786
G1 X90.039 Y97.622 E3.40986
G1 X90.144 Y97.384 E3.41851
G1 X90.552 Y96.559 E3.44912
G1 X91.195 Y95.531 E3.48945
G1 X91.451 Y95.17 E3.50417
G1 X92.016 Y94.443 E3.5348
G1 X92.623 Y93.786 E3.56455
G1 X92.809 Y93.601 E3.57327
G1 X93.794 Y92.736 E3.61687
G1 X93.958 Y92.609 E3.62377
G1 X95.034 Y91.877 E3.66706
G1 X95.268 Y91.738 E3.67611
G1 X96.08 Y91.302 E3.70676
G1 X97.241 Y90.825 E3.74851
G1 X97.611 Y90.698 E3.76152
G1 X98.494 Y90.437 E3.79215
G1 X99.29 Y90.272 E3.81918
G1 X99.634 Y90.214 E3.83079
G1 X100.547 Y90.1 E3.86139
G1 X101.68 Y90.07 E3.89909
G1 X102.848 Y90.101 E3.93795
G1 X105.449 Y90.146 E4.02447
G1 X107.99 Y90.118 E4.10899
G1 X109.699 Y90.068 E4.16585
G1 X110.619 Y90.082 E4.19646
G1 X111.287 Y90.142 E4.21876
G1 X111.673 Y90.189 E4.2317
G1 X112.581 Y90.34 E4.26231
G1 X113.431 Y90.556 E4.29148
G1 X113.685 Y90.632 E4.3003
G1 X114.895 Y91.076 E4.34317
G1 X115.135 Y91.181 E4.35188
G1 X115.961 Y91.586 E4.38248
G1 X116.996 Y92.23 E4.42302
G1 X117.41 Y92.522 E4.43987
G1 X118.138 Y93.085 E4.47048
G1 X118.815 Y93.709 E4.50111
G1 X119.367 Y94.308 E4.5282
G1 X119.598 Y94.579 E4.54004
G1 X120.164 Y95.305 E4.57066
G1 X120.706 Y96.146 E4.60394
G1 X120.901 Y96.483 E4.61689
G1 X121.327 Y97.299 E4.6475
G1 X121.808 Y98.519 E4.69112
G1 X121.908 Y98.827 E4.70189
G1 X122.154 Y99.714 E4.73251
G1 X122.281 Y100.35 E4.75408
G1 X122.321 Y100.589 E4.76214
G1 X122.459 Y101.957 E4.80787
G1 X122.47 Y102.262 E4.81802
G1 X122.463 Y103.183 E4.84865
G1 X122.337 Y104.361 E4.88806
G1 X122.272 Y104.757 E4.9014
G1 X122.084 Y105.658 E4.93202
G1 X121.835 Y106.491 E4.96093
G1 X121.741 Y106.764 E4.97054
G1 X121.234 Y107.982 E5.01442
G1 X121.129 Y108.196 E5.02235
G1 X120.688 Y109.004 E5.05296
G1 X119.913 Y110.12 E5.09815
G1 X119.658 Y110.441 E5.11179
G1 X119.054 Y111.137 E5.14244
G1 X118.548 Y111.637 E5.1661
G1 X118.353 Y111.817 E5.17493
G1 X117.65 Y112.411 E5.20554
G1 X117.188 Y112.75 E5.2246
G1 X116.939 Y112.922 E5.23466
G1 X116.159 Y113.411 E5.26528
G1 X114.984 Y113.987 E5.3088
G1 X114.681 Y114.113 E5.31972
G1 X113.816 Y114.43 E5.35036
G1 X113.211 Y114.602 E5.37128
G1 X112.879 Y114.686 E5.38267
G1 X111.581 Y114.93 E5.4266
G1 X111.379 Y114.955 E5.43337
G1 X110.461 Y115.028 E5.464
G1 X109.804 Y115.031 E5.48585
G1 X106.829 Y114.954 E5.58483
G1 X104.268 Y114.963 E5.67001
G1 X101.81 Y115.031 E5.7518
G1 X100.889 Y115.017 E5.78243
G1 X100.035 Y114.938 E5.81096
G1 X99.124 Y114.803 E5.84159
G1 X98.51 Y114.666 E5.86251
G1 X98.263 Y114.603 E5.87099
G1 X97.382 Y114.337 E5.9016
G1 X96.123 Y113.803 E5.94708
G1 X95.729 Y113.605 E5.96175
G1 X94.925 Y113.157 E5.99236
G1 X94.328 Y112.76 E6.01621
G1 X94.153 Y112.635 E6.02336
G1 X93.113 Y111.788 E6.06797
G1 X92.965 Y111.651 E6.07468
G1 X92.059 Y110.701 E6.11834
G1 X91.856 Y110.46 E6.12882
G1 X91.294 Y109.731 E6.15944
G1 X90.617 Y108.631 E6.2024
G1 X90.403 Y108.231 E6.21749
G1 X90.004 Y107.401 E6.24812
G1 X89.679 Y106.54 E6.27873
G1 X89.49 Y105.9 E6.30092
G1 X89.381 Y105.481 E6.31532
G1 X89.189 Y104.58 E6.34596
G1 X89.076 Y103.685 E6.37597
G1 X89.057 Y103.455 E6.38364
G1 X89.031 Y102.112 E6.42832
G0 F6000 X89.431 Y102.13
G1 F1200 X89.442 Y101.882 E6.43657
G1 X89.522 Y100.982 E6.46663
G1 X89.719 Y99.93 E6.50222
G1 X89.824 Y99.497 E6.51704
G1 X90.076 Y98.63 E6.54707
G1 X90.405 Y97.784 E6.57726
G1 X90.51 Y97.546 E6.58592
G1 X90.911 Y96.737 E6.61595
G1 X91.522 Y95.763 E6.65419
G1 X91.778 Y95.402 E6.66891
G1 X92.332 Y94.689 E6.69894
G1 X92.905 Y94.07 E6.727
G1 X93.091 Y93.885 E6.73572
G1 X94.039 Y93.052 E6.77769
G1 X94.203 Y92.925 E6.78459
G1 X95.239 Y92.221 E6.82625
G1 X95.473 Y92.082 E6.83531
G1 X96.269 Y91.655 E6.86535
G1 X97.371 Y91.203 E6.90497
G1 X97.741 Y91.076 E6.91798
G1 X98.607 Y90.821 E6.948
G1 X99.356 Y90.666 E6.97344
G1 X99.7 Y90.608 E6.98505
G1 X100.596 Y90.497 E7.01507
G1 X101.669 Y90.47 E7.05077
G1 X102.829 Y90.501 E7.08937
G1 X105.447 Y90.546 E7.17646
G1 X108.005 Y90.517 E7.26154
G1 X109.71 Y90.468 E7.31827
G1 X110.613 Y90.482 E7.34831
G1 X111.239 Y90.539 E7.36922
G1 X111.625 Y90.586 E7.38215
G1 X112.516 Y90.735 E7.4122
G1 X113.316 Y90.939 E7.43966
G1 X113.57 Y91.015 E7.44848
G1 X114.734 Y91.442 E7.48971
G1 X114.974 Y91.547 E7.49843
G1 X115.785 Y91.945 E7.52847
G1 X116.765 Y92.557 E7.5669
G1 X117.179 Y92.849 E7.58375
G1 X117.893 Y93.401 E7.61377
G1 X118.556 Y94.015 E7.64382
G1 X119.063 Y94.567 E7.66875
G1 X119.294 Y94.838 E7.6806
G1 X119.848 Y95.551 E7.71063
G1 X120.36 Y96.346 E7.74208
G1 X120.555 Y96.683 E7.75503
G1 X120.972 Y97.484 E7.78507
G1 X121.427 Y98.642 E7.82645
G1 X121.527 Y98.95 E7.83722
G1 X121.768 Y99.821 E7.86728
G1 X121.886 Y100.416 E7.88745
G1 X121.926 Y100.655 E7.89551
G1 X122.059 Y101.971 E7.9395
G1 X122.07 Y102.276 E7.94965
G1 X122.063 Y103.179 E7.97969
G1 X121.942 Y104.296 E8.01706
G1 X121.877 Y104.692 E8.03041
G1 X121.692 Y105.576 E8.06044
G1 X121.456 Y106.361 E8.08771
G1 X121.362 Y106.634 E8.09731
G1 X120.875 Y107.806 E8.13952
G1 X120.77 Y108.02 E8.14745
G1 X120.337 Y108.812 E8.17747
G1 X119.6 Y109.872 E8.22041
G1 X119.345 Y110.193 E8.23405
G1 X118.752 Y110.874 E8.26408
G1 X118.276 Y111.343 E8.28631
G1 X118.081 Y111.523 E8.29513
G1 X117.391 Y112.106 E8.32518
G1 X116.711 Y112.592 E8.35298
G1 X115.946 Y113.072 E8.38302
G1 X114.83 Y113.618 E8.42434
G1 X114.527 Y113.744 E8.43525
G1 X113.679 Y114.054 E8.46528
G1 X113.113 Y114.214 E8.48485
G1 X112.781 Y114.298 E8.49624
G1 X111.532 Y114.533 E8.53851
G1 X111.33 Y114.558 E8.54528
G1 X110.43 Y114.629 E8.5753
G1 X109.815 Y114.632 E8.59576
G1 X106.804 Y114.555 E8.69594
G1 X104.256 Y114.563 E8.78069
G1 X101.799 Y114.631 E8.86244
G1 X100.461 Y114.58 E8.90697
G1 X100.076 Y114.54 E8.91985
G1 X99.183 Y114.407 E8.94988
G1 X98.609 Y114.279 E8.96944
G1 X98.362 Y114.216 E8.97791
G1 X97.498 Y113.954 E9.00794
G1 X96.303 Y113.446 E9.05113
G1 X95.909 Y113.248 E9.0658
G1 X95.121 Y112.807 E9.09583
G1 X94.56 Y112.434 E9.11824
G1 X94.385 Y112.309 E9.12539
G1 X93.385 Y111.494 E9.1683
G1 X93.237 Y111.357 E9.17501
G1 X92.365 Y110.443 E9.21702
G1 X92.162 Y110.202 E9.2275
G1 X91.611 Y109.486 E9.25755
G1 X90.969 Y108.443 E9.29829
G1 X90.755 Y108.043 E9.31337
G1 X90.365 Y107.228 E9.34343
G1 X90.048 Y106.383 E9.37344
G1 X89.878 Y105.799 E9.39367
G1 X89.769 Y105.38 E9.40807
G1 X89.58 Y104.497 E9.43811
G1 X89.475 Y103.652 E9.46643
G1 X89.456 Y103.422 E9.4741
G1 X89.431 Y102.13 E9.51708
G1 F1500 E3.01708
;MESH:BUTTON_FIX.STL
G0 F6000 X99.092 Y103.418
G0 X100.135 Y103.086
G0 X100.972 Y103.523
G0 X101.713 Y103.818
G1 F1500 E9.51708
G0 F6000 X101.777 Y104.221
;TYPE:WALL-OUTER
G1 F1200 X102.178 Y104.102 E9.531
G1 X102.543 Y103.885 E9.54512
G1 X102.836 Y103.593 E9.55888
G1 X103.05 Y103.232 E9.57284
G1 X103.171 Y102.828 E9.58686
G1 X103.189 Y102.41 E9.60078
G1 X103.105 Y102.009 E9.61441
G1 X102.964 Y101.717 E9.62519
G1 X102.908 Y101.632 E9.62858
G1 X102.792 Y101.456 E9.63559
G1 X102.483 Y101.171 E9.64957
G1 X102.122 Y100.972 E9.66328
G1 X101.706 Y100.869 E9.67753
G1 X101.367 Y100.861 E9.68881
G1 X100.959 Y100.945 E9.70267
G1 X100.669 Y101.085 E9.71338
G1 X100.407 Y101.258 E9.72382
G1 X100.121 Y101.566 E9.7378
G1 X99.92 Y101.932 E9.75169
G1 X99.844 Y102.239 E9.76221
G1 X99.806 Y102.553 E9.77273
G1 X99.852 Y102.956 E9.78622
G1 X99.968 Y103.249 E9.7967
G1 X100.121 Y103.533 E9.80743
G1 X100.403 Y103.84 E9.82129
G1 X100.758 Y104.074 E9.83543
G1 X101.056 Y104.175 E9.8459
G1 X101.36 Y104.238 E9.85622
G1 X101.777 Y104.221 E9.87011
G0 F6000 X101.711 Y103.823
;TYPE:WALL-INNER
G1 F1200 X102.016 Y103.732 E9.88069
G1 X102.296 Y103.567 E9.8915
G1 X102.518 Y103.345 E9.90194
G1 X102.68 Y103.07 E9.91256
G1 X102.773 Y102.761 E9.92329
G1 X102.787 Y102.443 E9.93388
G1 X102.721 Y102.125 E9.94468
G1 X102.574 Y101.852 E9.95499
G1 X102.369 Y101.612 E9.96549
G1 X102.117 Y101.426 E9.97591
G1 X101.819 Y101.31 E9.98654
G1 X101.529 Y101.265 E9.99631
G1 X101.278 Y101.288 E10.00469
G1 X101.015 Y101.353 E10.0137
G1 X100.798 Y101.48 E10.02206
G1 X100.559 Y101.683 E10.03249
G1 X100.375 Y101.935 E10.04287
G1 X100.249 Y102.223 E10.05333
G1 X100.209 Y102.554 E10.06441
G1 X100.245 Y102.87 E10.07499
G1 X100.366 Y103.145 E10.08499
G1 X100.557 Y103.417 E10.09604
G1 X100.796 Y103.619 E10.10645
G1 X101.072 Y103.77 E10.11691
G1 X101.393 Y103.836 E10.12781
G1 X101.711 Y103.823 E10.1384
G0 F6000 X101.105 Y103.392
;TYPE:SKIN
G1 F1200 X101.391 Y103.456 E10.14814
G1 X101.65 Y103.449 E10.15676
G1 X101.974 Y103.336 E10.16818
G1 X102.215 Y103.113 E10.1791
G1 X102.378 Y102.811 E10.19051
G1 X102.408 Y102.471 E10.20186
G1 X102.405 Y102.433 E10.20313
G1 X102.342 Y102.154 E10.21264
G1 X102.133 Y101.882 E10.22405
G1 X101.923 Y101.731 E10.23266
G1 X101.676 Y101.652 E10.24128
G1 X101.4 Y101.64 E10.25047
G1 X101.104 Y101.709 E10.26058
G1 X100.833 Y101.918 E10.27196
G1 X100.629 Y102.221 E10.28411
G1 X100.585 Y102.529 E10.29446
G1 X100.629 Y102.875 E10.30606
G1 X100.818 Y103.169 E10.31768
G1 X101.105 Y103.392 E10.32977
G0 F6000 X101.553 Y103.251
G1 F1200 X100.798 Y102.495 E10.36531
G0 F6000 X100.955 Y102.087
G1 F1200 X101.952 Y103.084 E10.4122
G0 F6000 X102.185 Y102.751
G1 F1200 X101.301 Y101.867 E10.45378
G1 F1500 E3.95378
;MESH:BUTTON_FIX2.STL
G0 F6000 X101.212 Y101.402
G0 X101.915 Y101.499
G0 X102.167 Y101.681
G0 X102.961 Y102.431
G0 X104.055 Y102.41
G0 X107.516 Y103.175
G0 X108.635 Y103.086
G0 X109.472 Y103.523
G0 X110.213 Y103.818
G1 F1500 E10.45378
G0 F6000 X110.277 Y104.221
;TYPE:WALL-OUTER
G1 F1200 X110.678 Y104.102 E10.4677
G1 X111.043 Y103.885 E10.48182
G1 X111.336 Y103.593 E10.49558
G1 X111.55 Y103.232 E10.50954
G1 X111.671 Y102.828 E10.52356
G1 X111.68 Y102.615 E10.53065
G1 X111.689 Y102.41 E10.53748
G1 X111.605 Y102.009 E10.55111
G1 X111.464 Y101.717 E10.56189
G1 X111.292 Y101.456 E10.57229
G1 X110.983 Y101.171 E10.58627
G1 X110.622 Y100.972 E10.59998
G1 X110.206 Y100.869 E10.61423
G1 X109.867 Y100.861 E10.62551
G1 X109.459 Y100.945 E10.63937
G1 X109.169 Y101.085 E10.65008
G1 X108.907 Y101.258 E10.66052
G1 X108.621 Y101.566 E10.6745
G1 X108.42 Y101.932 E10.68839
G1 X108.344 Y102.239 E10.69891
G1 X108.306 Y102.553 E10.70943
G1 X108.352 Y102.956 E10.72292
G1 X108.468 Y103.249 E10.7334
G1 X108.621 Y103.533 E10.74413
G1 X108.903 Y103.84 E10.75799
G1 X109.258 Y104.074 E10.77213
G1 X109.556 Y104.175 E10.7826
G1 X109.86 Y104.238 E10.79293
G1 X110.277 Y104.221 E10.80681
G0 F6000 X109.572 Y103.77
;TYPE:WALL-INNER
G1 F1200 X109.893 Y103.836 E10.81771
G1 X110.211 Y103.823 E10.82829
G1 X110.516 Y103.732 E10.83888
G1 X110.796 Y103.567 E10.84969
G1 X111.018 Y103.345 E10.86013
G1 X111.18 Y103.07 E10.87075
G1 X111.273 Y102.761 E10.88148
G1 X111.28 Y102.598 E10.8869
G1 X111.255 Y102.289 E10.89722
G1 X111.169 Y101.997 E10.90734
G1 X110.984 Y101.717 E10.9185
G1 X110.747 Y101.498 E10.92923
G1 X110.475 Y101.348 E10.93957
G1 X110.152 Y101.268 E10.95063
G1 X109.778 Y101.288 E10.96309
G1 X109.515 Y101.353 E10.9721
G1 X109.298 Y101.48 E10.98046
G1 X109.059 Y101.683 E10.99089
G1 X108.875 Y101.935 E11.00127
G1 X108.749 Y102.223 E11.01173
G1 X108.709 Y102.554 E11.02282
G1 X108.745 Y102.87 E11.03339
G1 X108.866 Y103.145 E11.04339
G1 X109.057 Y103.417 E11.05444
G1 X109.296 Y103.619 E11.06485
G1 X109.572 Y103.77 E11.07531
G0 F6000 X109.605 Y103.392
;TYPE:SKIN
G1 F1200 X109.891 Y103.456 E11.08506
G1 X110.15 Y103.449 E11.09368
G1 X110.474 Y103.336 E11.10509
G1 X110.715 Y103.113 E11.11601
